X:7299
T:Humors of Tulla, The
R:reel
I:speed 350
E:7
M:C|
K:D
fe|d2cd BdAB|d2fd edBc|d2cd BdA2|(3Bcd ef ~g2fe|\
d2cd BdAB|d2fd edBc|d2cd BdA2|(3Bcd ef ~g2fg||*
af~f2 df~f2|af~f2 g2fg|af~f2 dfed|(3Bcd ef g2fg|\
af~f2 df~f2|af~f2 g2fg|af~f2 dfed|(3Bcd ef g2fe||**
